;FLAVOR:Marlin
;TIME:421
;Filament used: 0.240541m
;Layer height: 0.2
;MINX:81.012
;MINY:81.012
;MINZ:0.2
;MAXX:138.988
;MAXY:138.988
;MAXZ:2
;Generated with Cura_SteamEngine 4.11.0
M140 S60
M105
M190 S60
M104 S200
M105
M109 S200
M82 ;absolute extrusion mode
; Ender 3 Custom Start G-code
G92 E0 ; Reset Extruder
G28 ; Home all axes
G1 Z2.0 F3000 ; Move Z Axis up little to prevent scratching of Heat Bed
G1 X0.1 Y20 Z0.3 F5000.0 ; Move to start position
G1 X0.1 Y200.0 Z0.3 F1500.0 E15 ; Draw the first line
G1 X0.4 Y200.0 Z0.3 F5000.0 ; Move to side a little
G1 X0.4 Y20 Z0.3 F1500.0 E30 ; Draw the second line
G92 E0 ; Reset Extruder
G1 Z2.0 F3000 ; Move Z Axis up little to prevent scratching of Heat Bed
G1 X5 Y20 Z0.3 F5000.0 ; Move over to prevent blob squish
G92 E0
G92 E0
G1 F1500 E-6.5
;LAYER_COUNT:10
;LAYER:0
M107
G0 F6000 X89.233 Y89.79 Z0.2
;TYPE:SKIRT
G1 F1500 E0
G1 F1200 X89.82 Y89.204 E0.02759
G1 X90.303 Y88.736 E0.04996
G1 X90.719 Y88.354 E0.06874
G1 X91.095 Y88.03 E0.08525
G1 X91.473 Y87.719 E0.10153
G1 X92.028 Y87.271 E0.12525
G1 X92.637 Y86.792 E0.15102
G1 X93.151 Y86.411 E0.1723
G1 X93.342 Y86.278 E0.18004
G1 X93.739 Y86.012 E0.19594
G1 X94.408 Y85.577 E0.22248
G1 X95.149 Y85.11 E0.25161
G1 X95.685 Y84.793 E0.27232
G1 X96.08 Y84.578 E0.28728
G1 X96.419 Y84.401 E0.3
G1 X97.175 Y84.017 E0.3282
G1 X97.815 Y83.701 E0.35194
G1 X98.393 Y83.436 E0.37309
G1 X98.841 Y83.25 E0.38923
G1 X99.219 Y83.102 E0.40273
G1 X99.998 Y82.804 E0.43047
G1 X100.655 Y82.562 E0.45375
G1 X101.33 Y82.338 E0.47741
G1 X101.677 Y82.237 E0.48943
G1 X102.12 Y82.114 E0.50472
G1 X102.892 Y81.908 E0.5313
G1 X103.58 Y81.735 E0.55489
G1 X104.172 Y81.603 E0.57507
G1 X104.389 Y81.561 E0.58242
G1 X105.002 Y81.455 E0.60311
G1 X105.903 Y81.314 E0.63344
G1 X106.594 Y81.216 E0.65665
G1 X107.186 Y81.148 E0.67647
G1 X107.37 Y81.132 E0.68261
G1 X107.653 Y81.111 E0.69205
G1 X108.042 Y81.088 E0.70501
G1 X108.856 Y81.046 E0.73212
G1 X109.573 Y81.018 E0.75599
G1 X110.215 Y81.012 E0.77734
G1 X110.681 Y81.024 E0.79285
G1 X111.08 Y81.042 E0.80613
G1 X111.955 Y81.088 E0.83527
G1 X112.631 Y81.134 E0.85781
G1 X113.261 Y81.196 E0.87887
G1 X113.672 Y81.249 E0.89265
G1 X114.11 Y81.314 E0.90738
G1 X114.931 Y81.446 E0.93503
G1 X115.576 Y81.556 E0.9568
G1 X116.281 Y81.7 E0.98073
G1 X116.686 Y81.798 E0.99459
G1 X117.077 Y81.899 E1.00802
G1 X117.854 Y82.108 E1.03478
G1 X118.586 Y82.316 E1.06009
G1 X119.195 Y82.508 E1.08133
G1 X119.592 Y82.649 E1.09534
G1 X119.921 Y82.772 E1.10702
G1 X120.787 Y83.105 E1.13788
G1 X121.441 Y83.368 E1.16133
G1 X121.969 Y83.597 E1.18047
G1 X122.137 Y83.675 E1.18663
G1 X122.479 Y83.841 E1.19928
G1 X123.492 Y84.356 E1.23707
G1 X124.125 Y84.69 E1.26088
G1 X124.672 Y84.999 E1.28177
G1 X125.082 Y85.249 E1.29774
G1 X125.391 Y85.446 E1.30993
G1 X126.034 Y85.864 E1.33544
G1 X126.662 Y86.284 E1.36057
G1 X127.108 Y86.598 E1.37871
G1 X127.303 Y86.743 E1.38679
G1 X127.58 Y86.956 E1.39841
G1 X127.862 Y87.181 E1.41041
G1 X128.513 Y87.709 E1.43829
G1 X129.08 Y88.182 E1.46285
G1 X129.531 Y88.579 E1.48284
G1 X129.691 Y88.728 E1.49011
G1 X130.099 Y89.123 E1.50899
G1 X130.666 Y89.688 E1.53562
G1 X131.263 Y90.302 E1.5641
G1 X131.666 Y90.741 E1.58392
G1 X131.97 Y91.095 E1.59944
G1 X132.281 Y91.473 E1.61572
G1 X132.729 Y92.028 E1.63945
G1 X133.208 Y92.637 E1.66522
G1 X133.592 Y93.155 E1.68666
G1 X133.834 Y93.506 E1.70084
G1 X134.032 Y93.805 E1.71277
G1 X134.502 Y94.532 E1.74156
G1 X134.883 Y95.137 E1.76534
G1 X135.2 Y95.674 E1.78608
G1 X135.424 Y96.084 E1.80162
G1 X135.576 Y96.376 E1.81257
G1 X135.983 Y97.175 E1.8424
G1 X136.297 Y97.811 E1.86599
G1 X136.556 Y98.375 E1.88663
G1 X136.633 Y98.556 E1.89317
G1 X136.766 Y98.882 E1.90488
G1 X137.13 Y99.82 E1.93835
G1 X137.207 Y100.024 E1.9456
G1 X137.438 Y100.656 E1.96798
G1 X137.614 Y101.178 E1.9863
G1 X137.675 Y101.375 E1.99316
G1 X137.763 Y101.677 E2.00362
G1 X137.886 Y102.12 E2.01891
G1 X138.092 Y102.892 E2.04549
G1 X138.265 Y103.58 E2.06908
G1 X138.397 Y104.172 E2.08926
G1 X138.482 Y104.629 E2.10472
G1 X138.54 Y104.97 E2.11622
G1 X138.684 Y105.888 E2.14713
G1 X138.78 Y106.558 E2.16964
G1 X138.848 Y107.151 E2.18949
G1 X138.888 Y107.639 E2.20578
G1 X138.909 Y107.985 E2.21731
G1 X138.953 Y108.852 E2.24618
G1 X138.981 Y109.563 E2.26985
G1 X138.988 Y110.203 E2.29114
G1 X138.977 Y110.662 E2.30641
G1 X138.959 Y111.075 E2.32016
G1 X138.922 Y111.782 E2.3437
G1 X138.865 Y112.63 E2.37197
G1 X138.807 Y113.239 E2.39232
G1 X138.747 Y113.694 E2.40758
G1 X138.693 Y114.057 E2.41979
G1 X138.552 Y114.945 E2.44969
G1 X138.441 Y115.591 E2.4715
G1 X138.308 Y116.247 E2.49376
G1 X138.201 Y116.688 E2.50885
G1 X138.104 Y117.067 E2.52186
G1 X137.939 Y117.685 E2.54314
G1 X137.684 Y118.586 E2.57428
G1 X137.492 Y119.195 E2.59552
G1 X137.351 Y119.592 E2.60953
G1 X137.228 Y119.921 E2.62122
G1 X136.956 Y120.631 E2.6465
G1 X136.63 Y121.444 E2.67564
G1 X136.403 Y121.969 E2.69466
G1 X136.325 Y122.137 E2.70082
G1 X136.187 Y122.424 E2.71141
G1 X136.041 Y122.715 E2.72224
G1 X135.645 Y123.49 E2.75119
G1 X135.316 Y124.115 E2.77468
G1 X134.994 Y124.685 E2.79645
G1 X134.753 Y125.079 E2.81182
G1 X134.555 Y125.389 E2.82405
G1 X134.054 Y126.157 E2.85455
G1 X133.716 Y126.662 E2.87476
G1 X133.402 Y127.108 E2.8929
G1 X133.257 Y127.303 E2.90098
G1 X133.036 Y127.59 E2.91303
G1 X132.82 Y127.861 E2.92456
G1 X132.291 Y128.513 E2.95248
G1 X131.818 Y129.08 E2.97704
G1 X131.421 Y129.531 E2.99703
G1 X131.272 Y129.691 E3.0043
G1 X130.884 Y130.092 E3.02286
G1 X130.312 Y130.666 E3.04981
G1 X129.698 Y131.263 E3.07829
G1 X129.259 Y131.666 E3.09811
G1 X128.905 Y131.97 E3.11363
G1 X128.527 Y132.281 E3.12991
G1 X127.972 Y132.729 E3.15364
G1 X127.363 Y133.208 E3.17941
G1 X126.845 Y133.592 E3.20085
G1 X126.494 Y133.834 E3.21503
G1 X126.195 Y134.032 E3.22696
G1 X125.473 Y134.499 E3.25556
G1 X124.864 Y134.883 E3.27951
G1 X124.331 Y135.198 E3.3001
G1 X123.955 Y135.404 E3.31436
G1 X123.562 Y135.611 E3.32913
G1 X122.814 Y135.989 E3.35701
G1 X122.174 Y136.304 E3.38073
G1 X121.635 Y136.551 E3.40045
G1 X121.457 Y136.627 E3.40689
G1 X121.159 Y136.75 E3.41761
G1 X120.781 Y136.898 E3.43111
G1 X119.983 Y137.203 E3.45953
G1 X119.325 Y137.444 E3.48283
G1 X118.742 Y137.639 E3.50328
G1 X118.323 Y137.763 E3.51781
G1 X117.88 Y137.886 E3.53311
G1 X117.108 Y138.092 E3.55968
G1 X116.42 Y138.265 E3.58328
G1 X115.828 Y138.397 E3.60345
G1 X115.611 Y138.439 E3.6108
G1 X114.998 Y138.545 E3.63149
G1 X114.097 Y138.686 E3.66182
G1 X113.406 Y138.784 E3.68504
G1 X112.814 Y138.852 E3.70486
G1 X112.63 Y138.868 E3.711
G1 X112.347 Y138.889 E3.72044
G1 X111.958 Y138.912 E3.7334
G1 X111.147 Y138.954 E3.76041
G1 X110.435 Y138.982 E3.78411
G1 X109.795 Y138.988 E3.8054
G1 X109.318 Y138.976 E3.82127
G1 X108.921 Y138.958 E3.83448
G1 X108.047 Y138.912 E3.86359
G1 X107.37 Y138.866 E3.88616
G1 X106.745 Y138.805 E3.90705
G1 X106.327 Y138.751 E3.92107
G1 X105.889 Y138.686 E3.93579
G1 X105.051 Y138.552 E3.96402
G1 X104.406 Y138.441 E3.98579
G1 X103.753 Y138.308 E4.00795
G1 X103.314 Y138.202 E4.02297
G1 X102.923 Y138.101 E4.03641
G1 X102.146 Y137.892 E4.06317
G1 X101.414 Y137.684 E4.08848
G1 X100.805 Y137.492 E4.10972
G1 X100.408 Y137.351 E4.12373
G1 X100.079 Y137.228 E4.13541
G1 X99.369 Y136.956 E4.1607
G1 X98.556 Y136.63 E4.18983
G1 X98.031 Y136.403 E4.20886
G1 X97.863 Y136.325 E4.21502
G1 X97.593 Y136.195 E4.22498
G1 X97.256 Y136.027 E4.23751
G1 X96.511 Y135.645 E4.26535
G1 X95.882 Y135.314 E4.28899
G1 X95.296 Y134.983 E4.31138
G1 X94.918 Y134.751 E4.32613
G1 X94.612 Y134.556 E4.3382
G1 X93.836 Y134.051 E4.36899
G1 X93.333 Y133.714 E4.38913
G1 X92.892 Y133.402 E4.4071
G1 X92.697 Y133.257 E4.41518
G1 X92.41 Y133.036 E4.42723
G1 X92.139 Y132.82 E4.43875
G1 X91.487 Y132.291 E4.46668
G1 X90.92 Y131.818 E4.49124
G1 X90.469 Y131.421 E4.51122
G1 X90.309 Y131.272 E4.5185
G1 X89.901 Y130.877 E4.53738
G1 X89.204 Y130.181 E4.57014
G1 X88.736 Y129.698 E4.59251
G1 X88.329 Y129.254 E4.61255
G1 X88.03 Y128.905 E4.62783
G1 X87.719 Y128.527 E4.64411
G1 X87.271 Y127.972 E4.66784
G1 X86.792 Y127.363 E4.69361
G1 X86.408 Y126.845 E4.71505
G1 X86.15 Y126.469 E4.73022
G1 X85.953 Y126.172 E4.74207
G1 X85.504 Y125.477 E4.76959
G1 X85.119 Y124.867 E4.79358
G1 X84.791 Y124.313 E4.815
G1 X84.579 Y123.924 E4.82973
G1 X84.386 Y123.555 E4.84358
G1 X84.011 Y122.814 E4.8712
G1 X83.696 Y122.174 E4.89493
G1 X83.443 Y121.622 E4.91513
G1 X83.366 Y121.441 E4.92167
G1 X83.251 Y121.161 E4.93174
G1 X83.102 Y120.781 E4.94531
G1 X82.805 Y120.004 E4.97298
G1 X82.571 Y119.369 E4.99549
G1 X82.368 Y118.766 E5.01665
G1 X82.309 Y118.572 E5.02339
G1 X82.237 Y118.323 E5.03201
G1 X82.112 Y117.875 E5.04748
G1 X81.912 Y117.122 E5.0734
G1 X81.738 Y116.434 E5.097
G1 X81.595 Y115.788 E5.11901
G1 X81.518 Y115.372 E5.13308
G1 X81.453 Y114.988 E5.14603
G1 X81.314 Y114.097 E5.17602
G1 X81.216 Y113.406 E5.19924
G1 X81.148 Y112.814 E5.21906
G1 X81.132 Y112.63 E5.2252
G1 X81.111 Y112.347 E5.23464
G1 X81.088 Y111.958 E5.2476
G1 X81.046 Y111.145 E5.27468
G1 X81.018 Y110.431 E5.29844
G1 X81.012 Y109.79 E5.31976
G1 X81.024 Y109.318 E5.33547
G1 X81.042 Y108.921 E5.34868
G1 X81.088 Y108.047 E5.37779
G1 X81.134 Y107.37 E5.40036
G1 X81.195 Y106.745 E5.42125
G1 X81.254 Y106.295 E5.43634
G1 X81.321 Y105.847 E5.45141
G1 X81.446 Y105.067 E5.47768
G1 X81.555 Y104.428 E5.49924
G1 X81.697 Y103.732 E5.52287
G1 X81.798 Y103.314 E5.53717
G1 X81.9 Y102.918 E5.55077
G1 X82.108 Y102.146 E5.57737
G1 X82.316 Y101.414 E5.60268
G1 X82.508 Y100.805 E5.62392
G1 X82.652 Y100.401 E5.63818
G1 X82.78 Y100.057 E5.65039
G1 X83.044 Y99.368 E5.67493
G1 X83.37 Y98.556 E5.70403
G1 X83.597 Y98.031 E5.72306
G1 X83.675 Y97.863 E5.72922
G1 X83.805 Y97.592 E5.73921
G1 X83.979 Y97.244 E5.75215
G1 X84.355 Y96.51 E5.77958
G1 X84.684 Y95.885 E5.80308
G1 X85.006 Y95.315 E5.82485
G1 X85.254 Y94.911 E5.84062
G1 X85.458 Y94.591 E5.85324
G1 X85.946 Y93.843 E5.88294
G1 X86.284 Y93.338 E5.90315
G1 X86.598 Y92.892 E5.9213
G1 X86.743 Y92.697 E5.92938
G1 X86.957 Y92.418 E5.94107
G1 X87.194 Y92.121 E5.95371
G1 X87.713 Y91.482 E5.98109
G1 X88.194 Y90.906 E6.00605
G1 X88.597 Y90.45 E6.02629
G1 X88.738 Y90.299 E6.03316
G1 X88.918 Y90.111 E6.04182
G1 X89.233 Y89.79 E6.05678
G0 F6000 X89.516 Y90.073
G1 F1200 X90.099 Y89.491 E6.08418
G1 X90.582 Y89.023 E6.10655
G1 X90.982 Y88.655 E6.12462
G1 X91.125 Y88.53 E6.13094
G1 X91.35 Y88.339 E6.14076
G1 X91.724 Y88.03 E6.15689
G1 X92.275 Y87.585 E6.18045
G1 X92.884 Y87.106 E6.20622
G1 X93.38 Y86.739 E6.22674
G1 X93.571 Y86.606 E6.23448
G1 X93.783 Y86.462 E6.24301
G1 X94.037 Y86.295 E6.25312
G1 X94.75 Y85.834 E6.28136
G1 X95.362 Y85.449 E6.3054
G1 X95.879 Y85.143 E6.32539
G1 X96.266 Y84.932 E6.34005
G1 X96.601 Y84.757 E6.35262
G1 X97.352 Y84.375 E6.38064
G1 X97.992 Y84.059 E6.40438
G1 X98.549 Y83.804 E6.42476
G1 X98.726 Y83.729 E6.43115
G1 X98.987 Y83.623 E6.44052
G1 X99.363 Y83.475 E6.45396
G1 X100.136 Y83.179 E6.48149
G1 X100.793 Y82.937 E6.50478
G1 X101.444 Y82.721 E6.52759
G1 X101.784 Y82.622 E6.53937
G1 X102.224 Y82.5 E6.55456
G1 X102.989 Y82.296 E6.58089
G1 X103.677 Y82.123 E6.60448
G1 X104.248 Y81.996 E6.62394
G1 X104.708 Y81.91 E6.6395
G1 X105.065 Y81.85 E6.65154
G1 X105.96 Y81.71 E6.68167
G1 X106.651 Y81.612 E6.70489
G1 X107.221 Y81.547 E6.72397
G1 X107.405 Y81.531 E6.73011
G1 X107.677 Y81.511 E6.73918
G1 X108.063 Y81.488 E6.75204
G1 X108.871 Y81.446 E6.77895
G1 X109.588 Y81.418 E6.80282
G1 X110.207 Y81.412 E6.82341
G1 X110.663 Y81.424 E6.83858
G1 X111.06 Y81.441 E6.8518
G1 X111.928 Y81.487 E6.88071
G1 X112.604 Y81.533 E6.90324
G1 X113.211 Y81.592 E6.92353
G1 X113.614 Y81.645 E6.93705
G1 X114.047 Y81.709 E6.9516
G1 X114.864 Y81.84 E6.97913
G1 X115.509 Y81.95 E7.00089
G1 X116.188 Y82.089 E7.02394
G1 X116.587 Y82.185 E7.03759
G1 X116.973 Y82.285 E7.05085
G1 X117.583 Y82.448 E7.07185
G1 X118.476 Y82.701 E7.10272
G1 X119.063 Y82.886 E7.12319
G1 X119.453 Y83.024 E7.13695
G1 X119.778 Y83.145 E7.14849
G1 X120.638 Y83.476 E7.17914
G1 X121.292 Y83.739 E7.20258
G1 X121.801 Y83.96 E7.22104
G1 X121.969 Y84.038 E7.2272
G1 X122.299 Y84.198 E7.2394
G1 X123.306 Y84.71 E7.27697
G1 X123.939 Y85.044 E7.30077
G1 X124.466 Y85.342 E7.32091
G1 X124.868 Y85.587 E7.33657
G1 X125.173 Y85.782 E7.34861
G1 X125.935 Y86.278 E7.37885
G1 X126.44 Y86.616 E7.39906
G1 X126.869 Y86.919 E7.41653
G1 X127.064 Y87.064 E7.42461
G1 X127.331 Y87.269 E7.43581
G1 X127.611 Y87.492 E7.44771
G1 X128.257 Y88.016 E7.47538
G1 X128.824 Y88.489 E7.49994
G1 X129.258 Y88.872 E7.51919
G1 X129.602 Y89.196 E7.53491
G1 X129.9 Y89.488 E7.54878
G1 X130.509 Y90.098 E7.57745
G1 X130.976 Y90.58 E7.59977
G1 X131.364 Y91.003 E7.61887
G1 X131.49 Y91.148 E7.62525
G1 X131.661 Y91.35 E7.63406
G1 X131.97 Y91.724 E7.65019
G1 X132.415 Y92.275 E7.67375
G1 X132.894 Y92.884 E7.69952
G1 X133.264 Y93.384 E7.72021
G1 X133.501 Y93.729 E7.73413
G1 X133.696 Y94.023 E7.74586
G1 X134.164 Y94.745 E7.77448
G1 X134.545 Y95.35 E7.79826
G1 X134.85 Y95.867 E7.81823
G1 X135.07 Y96.27 E7.8335
G1 X135.22 Y96.558 E7.8443
G1 X135.625 Y97.352 E7.87394
G1 X135.939 Y97.988 E7.89753
G1 X136.188 Y98.531 E7.9174
G1 X136.265 Y98.712 E7.92394
G1 X136.393 Y99.027 E7.93525
G1 X136.757 Y99.965 E7.96872
G1 X136.831 Y100.161 E7.97569
G1 X137.062 Y100.793 E7.99807
G1 X137.232 Y101.297 E8.01576
G1 X137.293 Y101.494 E8.02262
G1 X137.378 Y101.784 E8.03267
G1 X137.5 Y102.224 E8.04785
G1 X137.704 Y102.989 E8.07419
G1 X137.877 Y103.677 E8.09778
G1 X138.004 Y104.248 E8.11724
G1 X138.088 Y104.696 E8.1324
G1 X138.145 Y105.033 E8.14377
G1 X138.288 Y105.945 E8.17447
G1 X138.384 Y106.615 E8.19698
G1 X138.45 Y107.186 E8.2161
G1 X138.489 Y107.664 E8.23205
G1 X138.509 Y108.006 E8.24345
G1 X138.554 Y108.868 E8.27216
G1 X138.582 Y109.579 E8.29582
G1 X138.588 Y110.195 E8.31631
G1 X138.577 Y110.646 E8.33132
G1 X138.56 Y111.054 E8.3449
G1 X138.523 Y111.761 E8.36844
G1 X138.466 Y112.603 E8.39651
G1 X138.41 Y113.19 E8.41613
G1 X138.352 Y113.636 E8.43109
G1 X138.298 Y113.994 E8.44313
G1 X138.158 Y114.877 E8.47286
G1 X138.047 Y115.523 E8.49466
G1 X137.918 Y116.156 E8.51615
G1 X137.814 Y116.589 E8.53096
G1 X137.717 Y116.963 E8.54381
G1 X137.507 Y117.744 E8.57071
G1 X137.299 Y118.476 E8.59602
G1 X137.114 Y119.063 E8.61649
G1 X136.976 Y119.453 E8.63025
G1 X136.854 Y119.778 E8.6418
G1 X136.517 Y120.654 E8.67301
G1 X136.259 Y121.295 E8.696
G1 X136.04 Y121.801 E8.71433
G1 X135.962 Y121.969 E8.7205
G1 X135.829 Y122.245 E8.73069
G1 X135.685 Y122.533 E8.74139
G1 X135.291 Y123.304 E8.77019
G1 X134.962 Y123.929 E8.79368
G1 X134.651 Y124.478 E8.81467
G1 X134.415 Y124.865 E8.82975
G1 X134.22 Y125.171 E8.84182
G1 X133.722 Y125.935 E8.87215
G1 X133.384 Y126.44 E8.89236
G1 X133.081 Y126.869 E8.90983
G1 X132.936 Y127.064 E8.91791
G1 X132.723 Y127.341 E8.92953
G1 X132.509 Y127.609 E8.94094
G1 X131.984 Y128.257 E8.96868
G1 X131.511 Y128.824 E8.99324
G1 X131.128 Y129.258 E9.01249
G1 X130.806 Y129.6 E9.02811
G1 X130.517 Y129.895 E9.04185
G1 X129.902 Y130.509 E9.07075
G1 X129.42 Y130.976 E9.09307
G1 X128.997 Y131.364 E9.11216
G1 X128.852 Y131.49 E9.11855
G1 X128.65 Y131.661 E9.12736
G1 X128.276 Y131.97 E9.14349
G1 X127.725 Y132.415 E9.16705
G1 X127.116 Y132.894 E9.19282
G1 X126.616 Y133.264 E9.21351
G1 X126.271 Y133.501 E9.22743
G1 X125.977 Y133.696 E9.23916
G1 X125.26 Y134.16 E9.26757
G1 X124.651 Y134.544 E9.29151
G1 X124.137 Y134.849 E9.31139
G1 X123.768 Y135.051 E9.32538
G1 X123.381 Y135.254 E9.33992
G1 X122.637 Y135.63 E9.36765
G1 X121.997 Y135.945 E9.39137
G1 X121.478 Y136.184 E9.41037
G1 X121.3 Y136.26 E9.41681
G1 X121.013 Y136.377 E9.42712
G1 X120.637 Y136.525 E9.44056
G1 X120.002 Y136.769 E9.46319
G1 X119.188 Y137.068 E9.49203
G1 X118.626 Y137.256 E9.51174
G1 X118.216 Y137.378 E9.52597
G1 X117.776 Y137.5 E9.54115
G1 X117.011 Y137.704 E9.56749
G1 X116.323 Y137.877 E9.59108
G1 X115.752 Y138.004 E9.61054
G1 X115.292 Y138.09 E9.6261
G1 X114.935 Y138.15 E9.63814
G1 X114.04 Y138.29 E9.66827
G1 X113.349 Y138.388 E9.69148
G1 X112.779 Y138.453 E9.71057
G1 X112.595 Y138.469 E9.71671
G1 X112.323 Y138.489 E9.72578
G1 X111.937 Y138.512 E9.73864
G1 X111.132 Y138.554 E9.76545
G1 X110.42 Y138.582 E9.78915
G1 X109.803 Y138.588 E9.80967
G1 X109.591 Y138.584 E9.81673
G1 X109.335 Y138.576 E9.82524
G1 X108.941 Y138.559 E9.83836
